X:1
T:Title
%%score ( 1 2 ) ( 3 4 )
L:1/8
M:6/4
K:G
V:1 treble nm="Drawbar Organ, Soprano"
V:2 treble 
V:3 bass nm="Drawbar Organ, A Song in the Night"
V:4 bass 
V:1
 [DB]2 [DB]2 [B,G]2 [CE]2 [B,D]2[K:bass] [_B,^C]2 | [B,D]2 [B,E]2 [G,B,]2 [B,E]2[K:treble] [B,D]4 | %2
w: By~Edmund~Simon~Lorenz * * * * *||
 [B,G]2 [DF]2 [EG]2 [FA]2 [Ac]2 [Fd]2 | [FA]2 [GB]4- [GB]4- [GB]3/2 z/ | %4
w: ||
 [DB]2 [DB]2 [B,G]2 [CE]2[K:bass] [B,D]2 [_B,^C]2 | [B,D]2 [B,E]2 [G,B,]2[K:treble] [B,E]2 [B,D]4 | %6
w: ||
 [DE]2 [DF]2 [FA]2 [GB]2 [^CA]2 [CG]2 | z2 A4- A4- A3/2 z/ |[M:3/4] z2 B4 | z2 B4 | z2 B2 G2- | %11
w: |||||
 GE D4 | z2 B,2- [B,G]2 | [DB]2 d2 e2 | z B [Fcd]4- | [Fcd]2 [CDF]4- | [CDF]2 [DFc]4 | z2 [DFc]4 | %18
w: |||||||
 z2 c2 A2- | AG F4 | z2 E2 z2 | z2 c2 z2 | z A [Bd]4- | [Bd]2 [GB]4 | z2 d4 | z2 d4 | z2 B2 G2- | %27
w: |||||||||
 GE D4 | z2 G2 A2 | [=FGB]2 e2 B2 | [^GBe]2 d4- | d2 c4 | z2 [EAe]2 [EAe]2 | [FAe]2 [E^Gd]4 | %34
w: |||||||
 [EAc]2 [DFB]2 [DFB]2 | [DFB]2 [CFA]4 | [B,EG]2 [EG]2 [DF]2 | [CE]2 [B,D]2 [Ec]2 | [DB]2 [DB]4 | %39
w: |||||
 [CA]2 [B,G]4- | [B,G]4 z2 |] %41
w: ||
V:2
 x10[K:bass] x2 | x8[K:treble] x4 | x12 | x12 | x8[K:bass] x4 | x6[K:treble] x6 | x12 | %7
 .[^CE]4 D2 E2 F4 |[M:3/4] x6 | x6 | x6 | x6 | z2 D2 z2 | z2 [GB]4 | [DG]2 z2 z2 | x6 | x6 | x6 | %18
 x6 | x6 | z2 C2- [CF]2 | [FA]2 [FA]2- [FAe]2 | F2 z2 z2 | x6 | x6 | x6 | x6 | x6 | x6 | %29
 z2 [E^G]4 | z2 [EA]4- | [EA]6 | x6 | x6 | x6 | x6 | x6 | x6 | x6 | x6 | x6 |] %41
V:3
 z2 G,,4- G,,2 G,4- | G,2 G,,4- G,,2 G,4 | z2 D,4- D,2 E,,4- | E,,2 G,,2 B,,2 D,2 G,4 | %4
 z2 G,,4- G,,2 G,4- | G,2 G,,4- G,,2 G,4 | [G,B,]2 A,4- A,2 [A,,E,]4 | z2 A,4- A,6 | %8
[M:3/4] z2 G,,2 [D,G,B,]2 | [D,G,B,]2 G,,2 [D,G,B,]2 | [D,G,B,]2 G,,2 [D,G,B,]2 | %11
 [D,G,B,]2 G,,2 [D,G,B,]2 | [D,G,B,]2 G,,2 [D,G,B,]2 | [D,G,B,]2 G,,2 [D,G,B,]2 | %14
 [D,G,B,]2 A,,2 [D,A,]2 | [D,A,]2 A,,2 [D,A,]2 | [D,A,]2 D,,2 [D,F,A,]2 | [D,A,]2 D,,2 [D,F,A,]2 | %18
 [D,A,]2 D,,2 [D,F,A,]2 | [D,F,A,]2 D,,2 [D,F,A,]2 | [D,F,A,]2 D,,2 [D,F,A,]2 | %21
 [D,F,A,]2 D,,2 [D,F,C]2 | [D,F,C]2 G,,2 [D,G,B,]2 | [D,G,B,]2 G,,2 [D,G,B,]2 | %24
 [D,G,B,]2 G,,2 [D,G,B,]2 | [D,G,B,]2 G,,2 [D,G,B,]2 | [D,G,B,]2 G,,2 [D,G,B,]2 | %27
 [D,G,B,]2 G,,2 [D,G,B,]2 | [D,G,B,]2 G,,2 [D,G,B,]2 | [D,G,B,]2 E,,2 [E,^G,B,]2 | %30
 [E,^G,B,]2 A,,2 [E,A,C]2 | [E,A,C]2 A,,2 [E,A,C]2 | [E,A,C]2 [C,C]2 [C,C]2 | [C,C]2 [B,,B,]4 | %34
 [A,,A,]2 [D,,D,]2 [D,,D,]2 | [D,,D,]2 [^D,,^D,]4 | [E,,E,]2 [C,G,]4- | [C,G,]2 [D,G,]4- | %38
 [D,G,]2 [D,F,]4 | [D,,D,]2 [G,,D,]4- | [G,,D,]4 z2 |] %41
V:4
 x12 | x12 | x12 | x12 | x12 | x12 | x12 | [G,A,]2 F,2 F,2 E,2 D,4 |[M:3/4] x6 | x6 | x6 | x6 | %12
 x6 | x6 | x6 | x6 | x6 | x6 | x6 | x6 | x6 | x6 | x6 | x6 | x6 | x6 | x6 | x6 | x6 | x6 | x6 | %31
 x6 | x6 | x6 | x6 | x6 | x6 | x6 | x6 | x6 | x6 |] %41

